(Exported by FreeCAD)
(Post Processor: PathScripts.post.grbl_post)
(Output Time:2020-08-07 06:53:33.925000)
(begin preamble)
G17 G90
G21
(begin operation: Profile_Edges)
(Path: Profile_Edges)
(Profile_Edges)
(Compensated Tool Path. Diameter: 5.0)
G0 Z14.0000
G0 X45.9721 Y6.7179
G0 Z12.0000
G1 X45.9721 Y6.7179 Z4.0000 F120.00
G2 X46.1918 Y6.1876 Z4.0000 I-0.5303 J-0.5303 F60.00
G1 X46.1918 Y5.0876 Z4.0000 F60.00
G2 X45.4418 Y4.3376 Z4.0000 I-0.7500 J0.0000 F60.00
G1 X25.4418 Y4.3376 Z4.0000 F60.00
G2 X24.6918 Y5.0876 Z4.0000 I0.0000 J0.7500 F60.00
G1 X24.6918 Y6.1876 Z4.0000 F60.00
G2 X25.4418 Y6.9376 Z4.0000 I0.7500 J-0.0000 F60.00
G1 X45.4418 Y6.9376 Z4.0000 F60.00
G2 X45.9721 Y6.7179 Z4.0000 I-0.0000 J-0.7500 F60.00
G0 Z14.0000
G0 X110.7721 Y5.6303
G0 Z12.0000
G1 X110.7721 Y5.6303 Z4.0000 F120.00
G2 X110.9918 Y5.1000 Z4.0000 I-0.5303 J-0.5303 F60.00
G1 X110.9918 Y4.0000 Z4.0000 F60.00
G2 X110.2418 Y3.2500 Z4.0000 I-0.7500 J0.0000 F60.00
G1 X90.2418 Y3.2500 Z4.0000 F60.00
G2 X89.4918 Y4.0000 Z4.0000 I0.0000 J0.7500 F60.00
G1 X89.4918 Y5.1000 Z4.0000 F60.00
G2 X90.2418 Y5.8500 Z4.0000 I0.7500 J-0.0000 F60.00
G1 X110.2418 Y5.8500 Z4.0000 F60.00
G2 X110.7721 Y5.6303 Z4.0000 I-0.0000 J-0.7500 F60.00
G0 Z14.0000
G0 X131.5303 Y57.7173
G0 Z12.0000
G1 X131.5303 Y57.7173 Z4.0000 F120.00
G2 X131.7500 Y57.1869 Z4.0000 I-0.5303 J-0.5303 F60.00
G1 X131.7500 Y37.1869 Z4.0000 F60.00
G2 X131.0000 Y36.4369 Z4.0000 I-0.7500 J0.0000 F60.00
G1 X129.9000 Y36.4369 Z4.0000 F60.00
G2 X129.1500 Y37.1869 Z4.0000 I0.0000 J0.7500 F60.00
G1 X129.1500 Y57.1869 Z4.0000 F60.00
G2 X129.9000 Y57.9369 Z4.0000 I0.7500 J-0.0000 F60.00
G1 X131.0000 Y57.9369 Z4.0000 F60.00
G2 X131.5303 Y57.7173 Z4.0000 I-0.0000 J-0.7500 F60.00
G0 Z14.0000
G0 X131.5303 Y57.7173
G0 Z12.0000
G1 X131.5303 Y57.7173 Z4.0000 F120.00
G2 X131.7500 Y57.1869 Z4.0000 I-0.5303 J-0.5303 F60.00
G1 X131.7500 Y37.1869 Z4.0000 F60.00
G2 X131.0000 Y36.4369 Z4.0000 I-0.7500 J0.0000 F60.00
G1 X129.9000 Y36.4369 Z4.0000 F60.00
G2 X129.1500 Y37.1869 Z4.0000 I0.0000 J0.7500 F60.00
G1 X129.1500 Y57.1869 Z4.0000 F60.00
G2 X129.9000 Y57.9369 Z4.0000 I0.7500 J-0.0000 F60.00
G1 X131.0000 Y57.9369 Z4.0000 F60.00
G2 X131.5303 Y57.7173 Z4.0000 I-0.0000 J-0.7500 F60.00
G0 Z14.0000
G0 X110.1745 Y90.5303
G0 Z12.0000
G1 X110.1745 Y90.5303 Z4.0000 F120.00
G2 X110.3942 Y90.0000 Z4.0000 I-0.5303 J-0.5303 F60.00
G1 X110.3942 Y88.9000 Z4.0000 F60.00
G2 X109.6442 Y88.1500 Z4.0000 I-0.7500 J0.0000 F60.00
G1 X89.6442 Y88.1500 Z4.0000 F60.00
G2 X88.8942 Y88.9000 Z4.0000 I0.0000 J0.7500 F60.00
G1 X88.8942 Y90.0000 Z4.0000 F60.00
G2 X89.6442 Y90.7500 Z4.0000 I0.7500 J-0.0000 F60.00
G1 X109.6442 Y90.7500 Z4.0000 F60.00
G2 X110.1745 Y90.5303 Z4.0000 I-0.0000 J-0.7500 F60.00
G0 Z14.0000
G0 X45.0818 Y91.6179
G0 Z12.0000
G1 X45.0818 Y91.6179 Z4.0000 F120.00
G2 X45.3014 Y91.0876 Z4.0000 I-0.5303 J-0.5303 F60.00
G1 X45.3014 Y89.9876 Z4.0000 F60.00
G2 X44.5514 Y89.2376 Z4.0000 I-0.7500 J0.0000 F60.00
G1 X24.5514 Y89.2376 Z4.0000 F60.00
G2 X23.8014 Y89.9876 Z4.0000 I0.0000 J0.7500 F60.00
G1 X23.8014 Y91.0876 Z4.0000 F60.00
G2 X24.5514 Y91.8376 Z4.0000 I0.7500 J-0.0000 F60.00
G1 X44.5514 Y91.8376 Z4.0000 F60.00
G2 X45.0818 Y91.6179 Z4.0000 I-0.0000 J-0.7500 F60.00
G0 Z14.0000
G0 X5.6303 Y58.3402
G0 Z12.0000
G1 X5.6303 Y58.3402 Z4.0000 F120.00
G2 X5.8500 Y57.8099 Z4.0000 I-0.5303 J-0.5303 F60.00
G1 X5.8500 Y37.8099 Z4.0000 F60.00
G2 X5.1000 Y37.0599 Z4.0000 I-0.7500 J0.0000 F60.00
G1 X4.0000 Y37.0599 Z4.0000 F60.00
G2 X3.2500 Y37.8099 Z4.0000 I0.0000 J0.7500 F60.00
G1 X3.2500 Y57.8099 Z4.0000 F60.00
G2 X4.0000 Y58.5599 Z4.0000 I0.7500 J-0.0000 F60.00
G1 X5.1000 Y58.5599 Z4.0000 F60.00
G2 X5.6303 Y58.3402 Z4.0000 I-0.0000 J-0.7500 F60.00
G0 Z14.0000
(finish operation: Profile_Edges)
(begin operation: Profile_Faces)
(Path: Profile_Faces)
(Profile_Faces)
(Compensated Tool Path. Diameter: 5.0)
G0 Z14.0000
G0 X135.5303 Y94.5303
G0 Z12.0000
G1 X135.5303 Y94.5303 Z4.0000 F120.00
G2 X135.7500 Y94.0000 Z4.0000 I-0.5303 J-0.5303 F60.00
G1 X135.7500 Y0.0000 Z4.0000 F60.00
G2 X135.0000 Y-0.7500 Z4.0000 I-0.7500 J0.0000 F60.00
G1 X0.0000 Y-0.7500 Z4.0000 F60.00
G2 X-0.7500 Y0.0000 Z4.0000 I0.0000 J0.7500 F60.00
G1 X-0.7500 Y94.0000 Z4.0000 F60.00
G2 X0.0000 Y94.7500 Z4.0000 I0.7500 J-0.0000 F60.00
G1 X135.0000 Y94.7500 Z4.0000 F60.00
G2 X135.5303 Y94.5303 Z4.0000 I-0.0000 J-0.7500 F60.00
G0 Z14.0000
(finish operation: Profile_Faces)
(begin postamble)
M5
G17 G90
; M2
