(Exported by FreeCAD)
(Post Processor: PathScripts.post.grbl_post)
(Output Time:2020-01-29 21:36:13.467000)
(begin preamble)
G17 G90
G21
(begin operation: Contour)
(Path: Contour)
(Contour)
(Compensated Tool Path. Diameter: 5.0)
G0 Z9.0000
G0 X136.4340 Y56.9778
G0 Z7.0000
G1 X136.4340 Y56.9778 Z0.0000
G2 X137.5000 Y54.9300 Z0.0000 I-1.4340 J-2.0478
G1 X137.5000 Y1.1000 Z0.0000
G2 X135.0000 Y-1.4000 Z0.0000 I-2.5000 J0.0000
G1 X111.8078 Y-1.4000 Z0.0000
G2 X109.7477 Y-2.5000 Z0.0000 I-2.0487 J1.3578
G1 X89.7477 Y-2.5000 Z0.0000
G2 X87.6884 Y-1.4009 Z0.0000 I-0.0113 J2.4577
G1 X47.3571 Y-1.4009 Z0.0000
G2 X45.2977 Y-2.5000 Z0.0000 I-2.0480 J1.3586
G1 X25.2978 Y-2.5000 Z0.0000
G2 X23.2115 Y-1.3625 Z0.0000 I-0.0095 J2.4646
G1 X0.0000 Y-1.3625 Z0.0000
G2 X-2.5000 Y1.1375 Z0.0000 I0.0000 J2.5000
G1 X-2.5000 Y54.9151 Z0.0000
G2 X0.0000 Y57.4151 Z0.0000 I2.5000 J-0.0000
G1 X23.2277 Y57.4151 Z0.0000
G2 X25.2772 Y58.5000 Z0.0000 I2.0377 J-1.3710
G1 X45.2772 Y58.5000 Z0.0000
G2 X47.3101 Y57.4387 Z0.0000 I0.0123 J-2.4542
G1 X87.6943 Y57.4387 Z0.0000
G2 X89.7272 Y58.5000 Z0.0000 I2.0206 J-1.3929
G1 X109.7272 Y58.5000 Z0.0000
G2 X111.7662 Y57.4300 Z0.0000 I0.0121 J-2.4547
G1 X135.0000 Y57.4300 Z0.0000
G2 X136.4340 Y56.9778 Z0.0000 I-0.0000 J-2.5000
G0 Z9.0000
(finish operation: Contour)
(begin postamble)
M5
G17 G90
; M2
