(Exported by FreeCAD)
(Post Processor: PathScripts.post.grbl_post)
(Output Time:2020-08-07 06:53:33.925000)
(begin preamble)
G17 G90
G21
(begin operation: Profile_Edges)
(Path: Profile_Edges)
(Profile_Edges)
(Compensated Tool Path. Diameter: 5.0)
G0 Z14.0000
G0 X129.8363 Y38.0825
G0 Z12.0000
G1 X129.8363 Y38.0825 Z4.0000 F120.00
G1 X128.7363 Y38.0825 Z4.0000 F60.00
G1 X128.7363 Y18.0825 Z4.0000 F60.00
G1 X129.8363 Y18.0825 Z4.0000 F60.00
G1 X129.8363 Y38.0825 Z4.0000 F60.00
G0 Z14.0000
(finish operation: Profile_Edges)
(begin operation: Profile_Faces)
(Path: Profile_Faces)
(Profile_Faces)
(Compensated Tool Path. Diameter: 5.0)
G0 Z14.0000
G0 X135.0000 Y54.9300
G0 Z12.0000
G1 X135.0000 Y54.9300 Z4.0000 F120.00
G1 X109.7498 Y54.9300 Z4.0000 F60.00
G1 X109.7498 Y56.0000 Z4.0000 F60.00
G1 X89.7498 Y56.0000 Z4.0000 F60.00
G1 X89.7498 Y54.9368 Z4.0000 F60.00
G1 X45.2998 Y54.9368 Z4.0000 F60.00
G1 X45.2998 Y56.0000 Z4.0000 F60.00
G1 X25.2998 Y56.0000 Z4.0000 F60.00
G1 X25.2998 Y54.9203 Z4.0000 F60.00
G1 X0.0000 Y54.9203 Z4.0000 F60.00
G1 X0.0000 Y1.1375 Z4.0000 F60.00
G1 X25.2980 Y1.1375 Z4.0000 F60.00
G1 X25.2980 Y0.0000 Z4.0000 F60.00
G1 X45.2980 Y0.0000 Z4.0000 F60.00
G1 X45.2980 Y1.0991 Z4.0000 F60.00
G1 X89.7480 Y1.0991 Z4.0000 F60.00
G1 X89.7480 Y0.0000 Z4.0000 F60.00
G1 X109.7480 Y0.0000 Z4.0000 F60.00
G1 X109.7480 Y1.1000 Z4.0000 F60.00
G1 X135.0000 Y1.1000 Z4.0000 F60.00
G1 X135.0000 Y54.9300 Z4.0000 F60.00
G0 Z14.0000
(finish operation: Profile_Faces)
(begin postamble)
M5
G17 G90
; M2
