(Exported by FreeCAD)
(Post Processor: PathScripts.post.grbl_post)
(Output Time:2020-02-02 10:31:41.805000)
(begin preamble)
G17 G90
G21
(begin operation: Contour)
(Path: Contour)
(Contour)
(Compensated Tool Path. Diameter: 1.0)
G0 Z9.0000
G0 X135.0707 Y59.4958
G0 Z7.0000
G1 X135.0707 Y59.4958 Z3.0000 F60.00
G2 X135.5000 Y59.0008 Z3.0000 I-0.0707 J-0.4950 F120.00
G1 X135.5000 Y3.0000 Z3.0000 F120.00
G2 X135.0000 Y2.5000 Z3.0000 I-0.5000 J-0.0000 F120.00
G1 X110.2337 Y2.5000 Z3.0000 F120.00
G1 X110.2337 Y0.0000 Z3.0000 F120.00
G2 X109.7337 Y-0.5000 Z3.0000 I-0.5000 J-0.0000 F120.00
G1 X89.7337 Y-0.5000 Z3.0000 F120.00
G2 X89.2337 Y0.0000 Z3.0000 I-0.0000 J0.5000 F120.00
G1 X89.2337 Y2.4925 Z3.0000 F120.00
G1 X45.7837 Y2.4925 Z3.0000 F120.00
G1 X45.7837 Y0.0000 Z3.0000 F120.00
G2 X45.2837 Y-0.5000 Z3.0000 I-0.5000 J-0.0000 F120.00
G1 X25.2837 Y-0.5000 Z3.0000 F120.00
G2 X24.7837 Y0.0000 Z3.0000 I-0.0000 J0.5000 F120.00
G1 X24.7837 Y2.5000 Z3.0000 F120.00
G1 X0.0000 Y2.5000 Z3.0000 F120.00
G2 X-0.5000 Y3.0000 Z3.0000 I-0.0000 J0.5000 F120.00
G1 X-0.5000 Y59.0000 Z3.0000 F120.00
G2 X0.0000 Y59.5000 Z3.0000 I0.5000 J0.0000 F120.00
G1 X24.7800 Y59.5000 Z3.0000 F120.00
G1 X24.7800 Y62.0000 Z3.0000 F120.00
G2 X25.2800 Y62.5000 Z3.0000 I0.5000 J0.0000 F120.00
G1 X45.2800 Y62.5000 Z3.0000 F120.00
G2 X45.7800 Y62.0000 Z3.0000 I0.0000 J-0.5000 F120.00
G1 X45.7800 Y59.5403 Z3.0000 F120.00
G1 X89.2300 Y59.5403 Z3.0000 F120.00
G1 X89.2300 Y62.0000 Z3.0000 F120.00
G2 X89.7300 Y62.5000 Z3.0000 I0.5000 J0.0000 F120.00
G1 X109.7299 Y62.5000 Z3.0000 F120.00
G2 X110.2299 Y62.0000 Z3.0000 I0.0000 J-0.5000 F120.00
G1 X110.2299 Y59.5008 Z3.0000 F120.00
G1 X135.0000 Y59.5008 Z3.0000 F120.00
G2 X135.0707 Y59.4958 Z3.0000 I0.0000 J-0.5000 F120.00
G1 X135.0707 Y59.4958 Z2.0000 F60.00
G2 X135.5000 Y59.0008 Z2.0000 I-0.0707 J-0.4950 F120.00
G1 X135.5000 Y3.0000 Z2.0000 F120.00
G2 X135.0000 Y2.5000 Z2.0000 I-0.5000 J-0.0000 F120.00
G1 X110.2337 Y2.5000 Z2.0000 F120.00
G1 X110.2337 Y0.0000 Z2.0000 F120.00
G2 X109.7337 Y-0.5000 Z2.0000 I-0.5000 J-0.0000 F120.00
G1 X89.7337 Y-0.5000 Z2.0000 F120.00
G2 X89.2337 Y0.0000 Z2.0000 I-0.0000 J0.5000 F120.00
G1 X89.2337 Y2.4925 Z2.0000 F120.00
G1 X45.7837 Y2.4925 Z2.0000 F120.00
G1 X45.7837 Y0.0000 Z2.0000 F120.00
G2 X45.2837 Y-0.5000 Z2.0000 I-0.5000 J-0.0000 F120.00
G1 X25.2837 Y-0.5000 Z2.0000 F120.00
G2 X24.7837 Y0.0000 Z2.0000 I-0.0000 J0.5000 F120.00
G1 X24.7837 Y2.5000 Z2.0000 F120.00
G1 X0.0000 Y2.5000 Z2.0000 F120.00
G2 X-0.5000 Y3.0000 Z2.0000 I-0.0000 J0.5000 F120.00
G1 X-0.5000 Y59.0000 Z2.0000 F120.00
G2 X0.0000 Y59.5000 Z2.0000 I0.5000 J0.0000 F120.00
G1 X24.7800 Y59.5000 Z2.0000 F120.00
G1 X24.7800 Y62.0000 Z2.0000 F120.00
G2 X25.2800 Y62.5000 Z2.0000 I0.5000 J0.0000 F120.00
G1 X45.2800 Y62.5000 Z2.0000 F120.00
G2 X45.7800 Y62.0000 Z2.0000 I0.0000 J-0.5000 F120.00
G1 X45.7800 Y59.5403 Z2.0000 F120.00
G1 X89.2300 Y59.5403 Z2.0000 F120.00
G1 X89.2300 Y62.0000 Z2.0000 F120.00
G2 X89.7300 Y62.5000 Z2.0000 I0.5000 J0.0000 F120.00
G1 X109.7299 Y62.5000 Z2.0000 F120.00
G2 X110.2299 Y62.0000 Z2.0000 I0.0000 J-0.5000 F120.00
G1 X110.2299 Y59.5008 Z2.0000 F120.00
G1 X135.0000 Y59.5008 Z2.0000 F120.00
G2 X135.0707 Y59.4958 Z2.0000 I0.0000 J-0.5000 F120.00
G1 X135.0707 Y59.4958 Z1.0000 F60.00
G2 X135.5000 Y59.0008 Z1.0000 I-0.0707 J-0.4950 F120.00
G1 X135.5000 Y3.0000 Z1.0000 F120.00
G2 X135.0000 Y2.5000 Z1.0000 I-0.5000 J-0.0000 F120.00
G1 X110.2337 Y2.5000 Z1.0000 F120.00
G1 X110.2337 Y0.0000 Z1.0000 F120.00
G2 X109.7337 Y-0.5000 Z1.0000 I-0.5000 J-0.0000 F120.00
G1 X89.7337 Y-0.5000 Z1.0000 F120.00
G2 X89.2337 Y0.0000 Z1.0000 I-0.0000 J0.5000 F120.00
G1 X89.2337 Y2.4925 Z1.0000 F120.00
G1 X45.7837 Y2.4925 Z1.0000 F120.00
G1 X45.7837 Y0.0000 Z1.0000 F120.00
G2 X45.2837 Y-0.5000 Z1.0000 I-0.5000 J-0.0000 F120.00
G1 X25.2837 Y-0.5000 Z1.0000 F120.00
G2 X24.7837 Y0.0000 Z1.0000 I-0.0000 J0.5000 F120.00
G1 X24.7837 Y2.5000 Z1.0000 F120.00
G1 X0.0000 Y2.5000 Z1.0000 F120.00
G2 X-0.5000 Y3.0000 Z1.0000 I-0.0000 J0.5000 F120.00
G1 X-0.5000 Y59.0000 Z1.0000 F120.00
G2 X0.0000 Y59.5000 Z1.0000 I0.5000 J0.0000 F120.00
G1 X24.7800 Y59.5000 Z1.0000 F120.00
G1 X24.7800 Y62.0000 Z1.0000 F120.00
G2 X25.2800 Y62.5000 Z1.0000 I0.5000 J0.0000 F120.00
G1 X45.2800 Y62.5000 Z1.0000 F120.00
G2 X45.7800 Y62.0000 Z1.0000 I0.0000 J-0.5000 F120.00
G1 X45.7800 Y59.5403 Z1.0000 F120.00
G1 X89.2300 Y59.5403 Z1.0000 F120.00
G1 X89.2300 Y62.0000 Z1.0000 F120.00
G2 X89.7300 Y62.5000 Z1.0000 I0.5000 J0.0000 F120.00
G1 X109.7299 Y62.5000 Z1.0000 F120.00
G2 X110.2299 Y62.0000 Z1.0000 I0.0000 J-0.5000 F120.00
G1 X110.2299 Y59.5008 Z1.0000 F120.00
G1 X135.0000 Y59.5008 Z1.0000 F120.00
G2 X135.0707 Y59.4958 Z1.0000 I0.0000 J-0.5000 F120.00
G1 X135.0707 Y59.4958 Z0.0000 F60.00
G2 X135.5000 Y59.0008 Z0.0000 I-0.0707 J-0.4950 F120.00
G1 X135.5000 Y3.0000 Z0.0000 F120.00
G2 X135.0000 Y2.5000 Z0.0000 I-0.5000 J-0.0000 F120.00
G1 X110.2337 Y2.5000 Z0.0000 F120.00
G1 X110.2337 Y0.0000 Z0.0000 F120.00
G2 X109.7337 Y-0.5000 Z0.0000 I-0.5000 J-0.0000 F120.00
G1 X89.7337 Y-0.5000 Z0.0000 F120.00
G2 X89.2337 Y0.0000 Z0.0000 I-0.0000 J0.5000 F120.00
G1 X89.2337 Y2.4925 Z0.0000 F120.00
G1 X45.7837 Y2.4925 Z0.0000 F120.00
G1 X45.7837 Y0.0000 Z0.0000 F120.00
G2 X45.2837 Y-0.5000 Z0.0000 I-0.5000 J-0.0000 F120.00
G1 X25.2837 Y-0.5000 Z0.0000 F120.00
G2 X24.7837 Y0.0000 Z0.0000 I-0.0000 J0.5000 F120.00
G1 X24.7837 Y2.5000 Z0.0000 F120.00
G1 X0.0000 Y2.5000 Z0.0000 F120.00
G2 X-0.5000 Y3.0000 Z0.0000 I-0.0000 J0.5000 F120.00
G1 X-0.5000 Y59.0000 Z0.0000 F120.00
G2 X0.0000 Y59.5000 Z0.0000 I0.5000 J0.0000 F120.00
G1 X24.7800 Y59.5000 Z0.0000 F120.00
G1 X24.7800 Y62.0000 Z0.0000 F120.00
G2 X25.2800 Y62.5000 Z0.0000 I0.5000 J0.0000 F120.00
G1 X45.2800 Y62.5000 Z0.0000 F120.00
G2 X45.7800 Y62.0000 Z0.0000 I0.0000 J-0.5000 F120.00
G1 X45.7800 Y59.5403 Z0.0000 F120.00
G1 X89.2300 Y59.5403 Z0.0000 F120.00
G1 X89.2300 Y62.0000 Z0.0000 F120.00
G2 X89.7300 Y62.5000 Z0.0000 I0.5000 J0.0000 F120.00
G1 X109.7299 Y62.5000 Z0.0000 F120.00
G2 X110.2299 Y62.0000 Z0.0000 I0.0000 J-0.5000 F120.00
G1 X110.2299 Y59.5008 Z0.0000 F120.00
G1 X135.0000 Y59.5008 Z0.0000 F120.00
G2 X135.0707 Y59.4958 Z0.0000 I0.0000 J-0.5000 F120.00
G0 Z9.0000
(finish operation: Contour)
(begin postamble)
M5
G17 G90
; M2
